packages/ui-solid/icons/mic_24.svg

<svg width="24" height="24" viewBox="0 0 24 24" fill="none" xmlns="http://www.w3.org/2000/svg">
<path fill-rule="evenodd" clip-rule="evenodd" d="M7.67192 6.26626C7.67192 3.91303 9.64146 2.06133 12.0007 2.06133C14.3599 2.06133 16.3294 3.91302 16.3294 6.26625V11.2236C16.3294 13.5769 14.3599 15.4286 12.0007 15.4286C9.64146 15.4286 7.67192 13.5769 7.67192 11.2236V6.26626ZM12.0007 3.86133C10.5726 3.86133 9.47192 4.96897 9.47192 6.26626V11.2236C9.47192 12.5209 10.5726 13.6286 12.0007 13.6286C13.4288 13.6286 14.5294 12.5209 14.5294 11.2236V6.26625C14.5294 4.96897 13.4288 3.86133 12.0007 3.86133ZM5.57175 11.1499C6.06881 11.1499 6.47175 11.5528 6.47175 12.0499C6.47175 12.6981 6.73944 13.944 7.56784 15.0087C8.36208 16.0294 9.70745 16.9335 12.0007 16.9335C14.2939 16.9335 15.6393 16.0294 16.4335 15.0087C17.2619 13.944 17.5296 12.6981 17.5296 12.0499C17.5296 11.5528 17.9325 11.1499 18.4296 11.1499C18.9267 11.1499 19.3296 11.5528 19.3296 12.0499C19.3296 13.0541 18.9544 14.7 17.8541 16.114C16.8437 17.4126 15.2506 18.4759 12.9007 18.6929V20.7253C12.9007 21.2223 12.4977 21.6253 12.0007 21.6253C11.5036 21.6253 11.1007 21.2223 11.1007 20.7253V18.6929C8.7508 18.4759 7.15762 17.4126 6.14723 16.114C5.04696 14.7 4.67175 13.0541 4.67175 12.0499C4.67175 11.5528 5.0747 11.1499 5.57175 11.1499Z" fill="#007AFF"/>
</svg>

<svg xmlns="http://www.w3.org/2000/svg" width="24" height="24" fill="none"><path fill="currentColor" fill-rule="evenodd" d="M7.672 6.266c0-2.353 1.97-4.205 4.329-4.205s4.328 1.852 4.328 4.205v4.958c0 2.353-1.97 4.205-4.328 4.205-2.36 0-4.33-1.852-4.33-4.205zM12 3.861c-1.428 0-2.53 1.108-2.53 2.405v4.958c0 1.297 1.102 2.405 2.53 2.405s2.528-1.108 2.528-2.405V6.266c0-1.297-1.1-2.405-2.528-2.405M5.57 11.15a.9.9 0 0 1 .9.9c0 .648.268 1.894 1.097 2.959.794 1.02 2.14 1.924 4.433 1.924s3.638-.904 4.432-1.924c.829-1.065 1.097-2.31 1.097-2.96a.9.9 0 1 1 1.8 0c0 1.005-.376 2.651-1.476 4.065-1.01 1.299-2.603 2.362-4.953 2.579v2.032a.9.9 0 0 1-1.8 0v-2.032c-2.35-.217-3.943-1.28-4.954-2.579-1.1-1.414-1.475-3.06-1.475-4.064a.9.9 0 0 1 .9-.9" clip-rule="evenodd"/></svg>
